src/svgs/atm-pound.svg

<svg xmlns="http://www.w3.org/2000/svg" viewBox="0 0 24 24" width="512" height="512"><path d="M19.778 3H4.222A2.12 2.12 0 002 5v14a2.12 2.12 0 002.222 2h15.556A2.12 2.12 0 0022 19V5a2.12 2.12 0 00-2.222-2zM7 5h10v10H7zM4 5h2v2H4zm0 4h2v2H4zm0 6v-2h2v2zm14 4H6v-2h12zm2-4h-2v-2h2zm0-4h-2V9h2zm0-4h-2V5h2zm-9.721 5.987h4.264V14H9.01v-1.174l.062-.016a1.28 1.28 0 00.835-.593 2.726 2.726 0 00.259-1.278h-.92v-.848h.92V8.623a2.269 2.269 0 01.686-1.7 2.511 2.511 0 011.634-.68 3.585 3.585 0 012.5.979l-.642.69a2.837 2.837 0 00-1.728-.649 1.285 1.285 0 00-.95.371 1.584 1.584 0 00-.344 1.08v1.373H13.5v.848h-2.174v.225a1.951 1.951 0 01-.338 1.14 2.5 2.5 0 01-.709.687z"/></svg>

<svg xmlns="http://www.w3.org/2000/svg" viewBox="0 0 24 24"><path d="M19.778,3H4.222A2.12,2.12,0,0,0,2,5V19a2.12,2.12,0,0,0,2.222,2H19.778A2.12,2.12,0,0,0,22,19V5A2.12,2.12,0,0,0,19.778,3ZM7,5H17V15H7ZM4,5H6V7H4ZM4,9H6v2H4Zm0,6V13H6v2Zm14,4H6V17H18Zm2-4H18V13h2Zm0-4H18V9h2Zm0-4H18V5h2Zm-9.721,5.987h4.264V14H9.01V12.826l.062-.016a1.28,1.28,0,0,0,.835-.593,2.726,2.726,0,0,0,.259-1.278h-.92v-.848h.92V8.623a2.269,2.269,0,0,1,.686-1.7,2.511,2.511,0,0,1,1.634-.68,3.585,3.585,0,0,1,2.5.979l-.642.69a2.837,2.837,0,0,0-1.728-.649,1.285,1.285,0,0,0-.95.371,1.584,1.584,0,0,0-.344,1.08v1.373H13.5v.848H11.326v.225a1.951,1.951,0,0,1-.338,1.14A2.5,2.5,0,0,1,10.279,12.987Z"/></svg>
